!!!!SEGMENT: pl-wnifc--3125-n--001-004_wieniawski-jozef--24-etudes-22me-etude.krn
!!!cenid: 18xx:3848
!!!COM: Wieniawski, Józef
!!!COM-rismID: pe137276
!!!CDT: 1837/05/23-1912/11/11
!!!CNT: Polish
!!!GTL: 24 Études
!!!OTL: 22me Etude
!!!OMV: 004
!!!PDT:
!!!AGN:
!!!SMS-siglum: PL-Wnifc
!!!SMS-shelfmark: 3125/n
!!!SMS-shelfwork: 001-004 G
!!!SMS-variant:
!!!SMS-altvar: g
!!!NIFC-rismSourceID: 1001142383
!!!NIFC-rismChildID: 1001142388
!!!NIFC-islandoraID: nifc:212194
!!!URL-pdf-islandora: https://repozytorium.nifc.pl/islandora/object/nifc%3A212194/datastream/PDF/view
!!!URL-scan: https://polish.musicsources.pl/pl/lokalizacje/galeria/druki-muzyczne/16832 @EN{Scan on Polish Music Sources Website} @PL{Skany w portalu Dziedzictwo Muzyki Polskiej w otwartym dostępie}
!!!IIIF:
!!!ONB-nifc: UWAGA: w zbiorze znajdują się Etiudy od nr 19-24 (pliki 001-006).
!!!AIN: 2 piano
!!!key:
**kern	**fing	**kern	**fing	**dynam
*part2	*part2	*part1	*part1	*part1
*staff2	*	*staff1	*	*
*I"Piano	*	*I"Piano	*	*
*Ipiano	*	*Ipiano	*	*
*ICklav	*	*ICklav	*	*
*clefF4	*	*clefG2	*	*
*k[b-e-]	*	*k[b-e-]	*	*
*g:	*	*g:	*	*
*M2/2	*	*M2/2	*	*
*met(c|)	*	*met(c|)	*	*
=1	=1	=1	=1	=1
!	!	!LO:TX:a:B:t=Molto agitato, con passione.	!	!
4r	.	1r	.	f
*ped	*	*	*	*
4AAA-X/ 4AA-X	.	.	.	.
4DD/ 4D	.	.	.	.
4EE-/ 4E-	.	.	.	.
=2	=2	=2	=2	=2
4r	.	4r	.	.
4d\	.	4dd\ 4ddd	.	.
*Xped	*	*	*	*
4Bn\	.	4bn\ 4bbn	.	.
4c\	.	4cc\ 4ccc	.	.
=3	=3	=3	=3	=3
*ped	*	*	*	*
4DDD/ 4DD	.	4r	.	.
2F#X\ 2c 2e- 2f#X	.	2ff#X\ 2eee- 2fff#X	.	.
[4F#\ 4Bn 4d 4f#	.	[4ff#\ [4ddd [4fff#	.	.
=4	=4	=4	=4	=4
!	!	!LO:TX:b:i:t=rit.-:dur=1w:ext=cd	!	!
4F#\] 4B- 4d 4f#X	.	4ff#X\] 4ddd] 4fff#X]	.	.
*Xped	*	*	*	*
2F#X\ 2B-X 2c#X 2f#	.	2ff#\ 2ccc#X 2fff#	.	.
4F#\ 4An 4cn 4f#	.	4ff#\ 4cccn 4fff#	.	.
=5	=5	=5	=5	=5
*ped	*below	*	*	*
16GG\LL 16D	2 5	16B-</LL	2	.
16G\	1	16d/	1	.
16B-\	4	16g/	.	.
16d>\JJ	.	16b-/JJ	3	.
16g>\LL	1	16dd/LL	5	.
16d>\	.	16b-/	3	.
16B-\	4	16g/	.	.
16G\JJ	1	16d/JJ	1	.
16C\LL	5	16B-</LL	2	.
*Xped	*	*	*	*
16E-\	.	16c/	1	.
16G\	.	16e-/	3	.
16B-\JJ	.	16b-/JJ	4	.
16C\LL	.	16A</LL	1	.
16G\J	.	16e-/J	3	.
8A\J	.	8a/J	5	.
!!LO:LB:g=original
=6	=6	=6	=6	=6
*ped	*	*	*	*
16GG\LL 16D	.	16B-</LL	2	.
16G\	.	16d/	1	.
16B-\	.	16g/	.	.
16d>\JJ	.	16b-/JJ	.	.
16fn>\LL	1	16dd/LL	5	.
16d>\	.	16b-/	3	.
16B-\	.	16g/	.	.
16G\JJ	1	16d/JJ	1	.
*Xped	*	*	*	*
16C\LL	5	16B-</LL	2	.
16D\	.	16d/	1	.
16G\	.	16f/	3	.
16B-\JJ	.	16b-/JJ	5	.
16C\LL	.	16A</LL	.	.
16En\J	.	16en/J	.	.
8A\J	.	8a/J	.	.
=7	=7	=7	=7	=7
*ped	*	*	*	*
16FF\LL 16C	.	16A</LL	2	.
16F\	1	16c/	1	.
16A\	4	16f/	.	.
16c\JJ	.	16a/JJ	4	.
16f>\LL	.	16cc/LL	5	.
16c\	.	16a/	4	.
16A\	4	16f/	.	.
16F\JJ	1	16c/JJ	1	.
16BB-\LL	5	16A</LL	2	.
*Xped	*	*	*	*
16C\	4	16c/	1	.
16F#X\	2	16e-X/	3	.
16A\JJ	1	16a/JJ	5	.
16BB-\LL	5	16G</LL	1	.
16D\J	.	16d/J	.	.
8B-\J	.	8g/J	.	.
=8	=8	=8	=8	=8
*ped	*	*	*	*
16EE-\LL	.	16G</LL	.	.
16BB-\	.	16B-</	.	.
16D\	.	16d/	1	.
16G\JJ	.	16g/JJ	.	.
16D\LL	.	16b-/LL	.	.
16G\	.	16g/	.	.
16D\	.	16d/	1	.
16BB-\JJ	.	16B-</JJ	.	.
*Xped	*	*	*	*
16EEn\LL	.	16G/<LL	1	.
16BB-\	.	16B->/	2	.
16D\	.	16d/	3	.
16G\JJ	.	16g/JJ	.	.
8D-X\L	3	16d-X/LL	2	.
.	.	16B-</J	1	.
8G-X\J	1	8g-X/J	5	.
!!LO:LB:g=original
=9	=9	=9	=9	=9
*ped	*	*	*	*
4.FFFn^<\ 4.FFn	.	8r	.	.
.	.	16AA</LL	2	.
.	.	16C</JJ	3	.
.	.	16E-X</LL	4	.
.	.	16F</	1	.
16C\LL	5	16A</	.	.
16E-\JJ	4	16c/JJ	.	.
16F\LL	.	16e-/LL	4	.
16A\	.	16f/	1	.
16c\	1	16a/	.	.
16e->\JJ	4	16cc/JJ	.	.
16f>\LL	.	16ee-/LL	4	.
16a>\	.	16ff/	1	.
16cc>\	1	16aa/	.	.
16ee->\JJ	4	16ccc/JJ	.	.
=10	=10	=10	=10	=10
16ff>\LL	.	16eee-/LL	.	.
16aa>\	.	16fff/	1	.
16ccc>\	1	16aaa/	.	.
*	*	*8va	*	*
16ee->\JJ	4	16cccc/JJ	3	.
16ff>\LL	3	16eeee-^/L	4	.
16ee->\	4	16cccc/	3	.
*	*	*X8va	*	*
16ccc>\	1	16aaa/	2	.
16aa>\JJ	2	16fff/JJ	1	.
16ff>\LL	.	16eee-/LL	4	.
16ee->\	4	16ccc/	.	.
16cc>\	1	16aa/	.	.
16a>\JJ	0	16ff/JJ	1	.
16f>\LL	.	16ee-/LL	4	.
16e->\	4	16cc/	.	.
16c\	1	16a/	.	.
16A\JJ	.	16f/JJ	1	.
=11	=11	=11	=11	=11
16F\LL	.	16e-/LL	4	.
16E-\	4	16c/	.	.
16C\	1	16A</	.	.
16AA\JJ	2	16F</JJ	1	.
16FF\LL	3	16E-</LL	2	.
16AA\	2	16F</	1	.
16C\	1	16A</	.	.
16E-\JJ	4	16c/JJ	.	.
*Xped	*	*	*	*
16F\LL	.	16e-/LL	.	.
16A\	.	16f/	1	.
16c\	1	16a/	.	.
16e->\JJ	4	16cc/JJ	.	.
16f>\LL	3	16ee-/LL	4	.
16e->\	4	16cc/	.	.
16c\	1	16a/	.	.
16A\JJ	2	16f/JJ	1	.
!!LO:LB:g=original
=12	=12	=12	=12	=12
*^	*	*	*	*
*	*	*	*^	*	*
4F\	2ryy	3	4e-/	2ryy	2	.
!	!	!	!LO:TX:b:i:t=poco rit.	!	!	!
4r	.	.	4A/ 4a	.	.	.
*	*ped	*	*	*	*	*
2FF/ 2F	(4C#\	.	(4c#X/ 4cc#X	2a\	.	.
*	*Xped	*	*	*	*	*
.	4D\)	.	4d/) 4dd	.	.	.
*v	*v	*	*	*	*	*
*	*	*v	*v	*	*
=13	=13	=13	=13	=13
*ped	*	*	*	*
4.FFFn\ 4.CC 4.FFn	.	8e-^>/L 8a 8ee-	.	.
.	.	16AA</L	2	.
.	.	16Cn</JJ	3	.
.	.	16E-</LL	4	.
.	.	16F</	1	.
16C\LL	5	16A</	.	.
16E-\JJ	4	16c/JJ	.	.
16F\LL	.	16e-/LL	4	.
16A\	.	16f/	1	.
16c\	1	16a/	.	.
16e->\JJ	4	16cc/JJ	.	.
16f>\LL	.	16ee-/LL	.	.
16a>\	.	16ff/	1	.
16cc>\	1	16aa/	.	.
16ee->\JJ	.	16ccc/JJ	.	.
=14	=14	=14	=14	=14
16ff>\LL	.	16eee-/LL	.	.
16aa>\	.	16fff/	1	.
16ccc>\	1	16aaa/	.	.
*	*	*8va	*	*
16ee->\JJ	4	16cccc/JJ	3	.
16ff>\LL	3	16eeee-/LL	4	.
16aa>\	2	16ffff/	5	.
16ff>\	3	16eeee-/	4	.
16ee->\JJ	4	16cccc/JJ	3	.
*	*	*X8va	*	*
16ccc>\LL	1	16aaa/LL	2	.
16aa>\	.	16fff/	1	.
16ff>\	.	16eee-/	4	.
16ee->\JJ	.	16ccc/JJ	.	.
16cc>\LL	1	16aa/LL	.	.
16a>\	.	16ff/	1	.
16f>\	.	16ee-/	.	.
16e->\JJ	.	16cc/JJ	.	.
=15	=15	=15	=15	=15
16c\LL	1	16a/LL	.	.
16A\	.	16f/	1	.
16F\	.	16e-/	.	.
16E-\JJ	4	16c/JJ	3	.
16C\LL	1	16A</LL	2	.
16AA\	2	16F</	1	.
16C\	1	16A</	2	.
16E-\JJ	4	16c/JJ	3	.
16F\LL	.	16e-/LL	4	.
16A\	.	16f/	1	.
16c\	1	16a/	.	.
16e->\JJ	4	16cc/JJ	.	.
16f>\LL	3	16ee-/LL	.	.
16a>\	2	16ff/	5	.
16f>\	.	16ee-/	.	.
16e->\JJ	.	16cc/JJ	.	.
!!LO:LB:g=original
=16	=16	=16	=16	=16
*^	*	*^	*	*
4c\	4ryy	5	4a/	4ryy	.	.
*ped	*	*	*	*	*	*
!	!	!	!LO:TX:b:i:t=poco rit.	!	!	!
2A:/	4FF:\ 4C:	.	4e-/ 4ee-	2a\	.	.
.	4C#X\	2	4c#X/ 4cc#X	.	4	.
*Xped	*	*	*	*	*	*
4FF#X/ 4D [4A	4ryy	.	4d/ [4a 4dd	4ryy	.	.
=17	=17	=17	=17	=17	=17	=17
4E-/ 4A]	4ryy	2	4e-/ 4a] 4ee-	4ryy	.	.
*ped	*	*	*	*	*	*
2B-/	4GG\ 4C#X	3 5	4c#X/ 4cc#X	2b-\	3 5	.
.	4D\	.	4d/ 4dd	.	.	.
*Xped	*	*	*	*	*	*
4FF#X\ 4E- [4Bn	4ryy	2 5	4e-/ [4bn 4ee-	4ryy	.	.
*	*	*	*v	*v	*	*
=18	=18	=18	=18	=18	=18
!	!	!	!LO:TX:b:i:t=accel.-:dur=2w:ext=cd	!	!
4C#X\ 4B]	4ryy	4	4c#X/ 4b] 4cc#X	4	.
2cn/	4AA\ 4D	3 5	4d/ 4cc# 4ddn	4 5	.
.	4E-\	2	4ee-\ 4eee-	.	.
*Xped	*	*	*	*	*
4FF#X/ 4C#X [4A	4ryy	3 5	4cc#X\ [<4aa 4ccc#X	4	.
=19	=19	=19	=19	=19	=19
*	*	*	*^	*	*
4D\ 4A]	4ryy	.	4dd\ 4aa] 4ddd	4ryy	.	.
*	*ped	*	*	*	*	*
2B-X/	4GGn\ 4E-	.	4ee-/ 4eee-	2bb-X\	.	.
*	*Xped	*	*	*	*	*
.	4C#X\	4	4cc#X/ 4ccc#X	.	4	.
4GG#X\ 4D [4Bn	4ryy	.	4dd\ [<4bbn 4ddd	4ryy	3 5	.
*v	*v	*	*	*	*	*
=20	=20	=20	=20	=20	=20
!	!	!LO:TX:b:i:t=rit.	!	!	!
4E-\ 4B]	2	4ee-\ 4bb] 4eee-	4ryy	.	.
*ped	*	*	*	*	*
4AA\ 4C#X [4cn	4 5	4cc#X\ 4ccc#X	[4cccn\	4 5	.
8D\ 8c]	.	2ff\ 2cccn] 2ddd	2ryy	5	.
4BBB-X^>;</ 4BB-X	.	.	.	.	.
8FFF#X/ 8FF#X	.	.	.	.	.
*Xped	*	*	*	*	*
*	*	*v	*v	*	*
!!LO:PB:g=original
=21	=21	=21	=21	=21
*ped	*	*	*	*
!	!	!LO:TX:a:i:t=a tempo	!	!
16GGn\LL 16D	2 5	16B-</LL	2	.
16G\	1	16d/	1	.
16B-\	4	16g/	.	.
16d>\JJ	.	16b-/JJ	3	.
16g>\LL	1	16dd/LL	4	.
16d>\	.	16b-/	.	.
16B-\	4	16g/	.	.
16G\JJ	1	16d/JJ	1	.
*Xped	*	*	*	*
16C\LL	5	16B-</LL	2	.
16E-\	.	16c/	1	.
16G\	.	16e-/	3	.
16B-\JJ	.	16b-/JJ	5	.
16C\LL	.	16A</LL	.	.
16G\J	.	16e-/J	.	.
8A\J	.	8a/J	.	.
=22	=22	=22	=22	=22
*^	*	*	*	*
16GG\LL 16D	4ryy	2 5	16B-</LL	2	.
16G\J	.	1	16d/	3	.
8B-\J	.	4	16g/	1	.
.	.	.	16b-/JJ	2	.
16g>\LL	4ryy	1	16gg/LL	5	.
16d>\J	.	.	16dd/	.	.
8B-\J	.	4	16b-/	.	.
.	.	.	16g/JJ	1	.
*Xped	*	*	*	*	*
16C/LL	2C\	.	16a/LL	1	.
16D/	.	.	16b-/	.	.
16E-/	.	.	16ee-/	.	.
16B-/JJ	.	.	16aa/JJ	.	.
*	*	*above	*	*	*
8En/L	.	2	16g/LL	1	.
.	.	.	16cc/J	.	.
8B-/J	.	1	8gg/J	.	.
*v	*v	*	*	*	*
=23	=23	=23	=23	=23
*ped	*	*	*	*
16FF\LL	.	16A</LL	2	.
16C\J	.	16c/	3	.
8F\J	.	16g/	1	.
.	.	16a/JJ	.	.
12g>\L	.	16gg^>/LL	5	.
.	.	16cc/	.	.
12c\	.	.	.	.
.	.	16a/	.	.
12A\J	.	.	.	.
.	.	16g/JJ	.	.
12g-X>\L	.	16gg-X^>/LL	5	.
.	.	16cc/	.	.
12c\	.	.	.	.
.	.	16a/	.	.
*Xped	*	*	*	*
12A\J	.	.	.	.
.	.	16g/JJ	.	.
16BB-\LL	.	16f/LL	1	.
16A-X\J	.	16cc-X/J	.	.
8d>\J	.	8ff/J	.	.
!!LO:LB:g=original
=24	=24	=24	=24	=24
*ped	*	*	*	*
16EE-X\LL	.	16Gn</LL	2	.
16BB-\J	.	16B-</	3	.
8G\J	.	16f/	1	.
.	.	16g/JJ	.	.
12f>\L	.	16ff^>/LL	5	.
.	.	16b-/	.	.
12B-\	.	.	.	.
.	.	16g/	.	.
12G\J	.	.	.	.
.	.	16f/JJ	.	.
12f-X>\L	.	16ff-X^>/LL	5	.
.	.	16b-/	.	.
12B-\	.	.	.	.
.	.	16g/	.	.
*Xped	*	*	*	*
12G\J	.	.	.	.
.	.	16f/JJ	.	.
16AAn\LL	.	16e-/LL	.	.
16G\J	.	16b-/J	.	.
8c#X\J	.	8ee-/J	.	.
=25	=25	=25	=25	=25
*^	*	*	*	*
*ped	*	*	*	*	*
(<8DD\L	4ryy	5	16F#X</LL	2	.
.	.	.	16A</	3	.
8Cn\)	.	1	16e-/	1	.
.	.	.	16f#X/JJ	.	.
(<8cn\	4c/	1	16ee-/LL	5	.
.	.	.	16a/J	.	.
8D\J)	.	5	8e-/J	.	.
*Xped	*	*	*	*	*
8GG\L	4ryy	5	16Fn</LL	2	.
.	.	.	16A-X</	3	.
8F\	.	2	16e-/	1	.
.	.	.	16fn/JJ	.	.
(<8Bn\	4B^>/	1	16ee-/LL	5	.
.	.	.	16a-X/J	.	.
8F\J)	.	2	8e-/J	.	.
=26	=26	=26	=26	=26	=26
*ped	*	*	*	*	*
16CC\LL	4ryy	.	16G</LL	2	.
16GG\J	.	.	16B-</	3	.
8E-\J	.	.	16e-/	1	.
.	.	.	16g/JJ	.	.
(<8d\L	4d^>/	.	16ee-/LL	5	.
.	.	.	16g/J	.	.
8G\J)	.	.	8e-/J	.	.
16EE-\LL	4ryy	.	16E-</LL	2	.
16GG-X\J	.	.	16G-X</	3	.
*Xped	*	*	*	*	*
8C\J	.	.	16e-/	1	.
.	.	.	16g-X/JJ	.	.
(<8c\L	4c^>/	.	16ee-/LL	5	.
.	.	.	16g-/J	.	.
8G\J)	.	.	8e-/J	.	.
*v	*v	*	*	*	*
!!LO:LB:g=original
=27||	=27||	=27||	=27||	=27||
*k[f#c#g#d#a#]	*	*k[f#c#g#d#a#]	*	*
*ped	*below	*	*	*
16BBB\LL	.	16D#</LL	2	.
16FF#\	.	16F#</	3	.
16BB\	.	16d#/	1	.
16D#\JJ	.	16f#/JJ	.	.
4B^\	.	4dd#\	5	.
8DD#\L	3	16r	.	.
.	.	16BB</LL	1	.
16FF#\L	.	16D#</	.	.
16BB\JJ	1	16F#</JJ	3	.
16FF#\LL	.	16D#</LL	.	.
16DD#\	.	16BB</	.	.
16FF#\	.	16D#</	.	.
16BB\JJ	.	16F#</JJ	.	.
=28	=28	=28	=28	=28
16D#\LL	3	16B</LL	1	.
16F#\	.	16d#/	.	.
16B\	.	16f#/	.	.
16F#\JJ	.	16d#/JJ	.	.
16D#\LL	.	16B</LL	.	.
16F#\	.	16d#/	.	.
16B\	1	16f#/	.	.
16d#>\JJ	.	16b/JJ	1	.
16f#>\LL	3	16dd#/LL	.	.
16b>\	.	16ff#/	.	.
16f#>\	.	16dd#/	.	.
16d#>\JJ	.	16b/JJ	.	.
16f#>\LL	.	16dd#/LL	.	.
16b>\	1	16ff#/	.	.
16dd#>\	3	16bb/	1	.
16ff#>\JJ	.	16ddd#/JJ	.	.
=29	=29	=29	=29	=29
16bb>\LL	1	16fff#/LL	3	.
*	*	*8va	*	*
16dd#>\	2	16bbb/	5	.
*	*	*X8va	*	*
16bb>\	1	16fff#/	3	.
16ff#>\JJ	2	16ddd#/JJ	2	.
16dd#>\LL	3	16bb/LL	1	.
16b>\	1	16ff#/	.	.
16f#>\	.	16dd#/	.	.
16d#>\JJ	.	16b/JJ	.	.
16f#>\LL	.	16dd#/LL	.	.
*Xped	*	*	*	*
16b>\JJ	.	16ff#/	.	.
16r>	.	16dd#/ 16bb	2 5	.
16b>\	.	16ff#/JJ	.	.
16f#>\LL	.	16dd#/LL	.	.
16d#>\	.	16b/	.	.
16B\	.	16f#/	.	.
16F#\JJ	.	16d#/JJ	.	.
=30	=30	=30	=30	=30
*^	*	*	*	*
4D#\	2ryy	.	4B/	.	.
!	!	!	!LO:TX:a:i:t=poco rit.	!	!
(8qF#/	.	.	.	.	.
4F#\)	.	.	4f#\ 4ff#	.	.
*ped	*	*	*	*	*
4EE:/ 4Gn:	2BB:\ 2C#:	.	4gn\ 4a# 4cc# 4ggn	.	sf
*Xped	*	*	*	*	*
4An/	.	.	4an\ 4aan	.	.
*v	*v	*	*	*	*
!!LO:LB:g=original
=31	=31	=31	=31	=31
*ped	*	*	*	*
4BBBB/ 4FFF# 4BBB	.	4f#\ 4b 4dd# 4ff#	.	sf
8DD#\L	3	16r	.	.
.	.	16BB</LL	1	.
16FF#\L	.	16D#</	2	.
16BB\JJ	.	16F#</JJ	3	.
16FF#\LL	.	16D#</LL	.	.
16DD#\	.	16BB</	.	.
16FF#\	.	16D#</	.	.
16BB\JJ	1	16F#</JJ	.	.
16D#\LL	3	16B</LL	1	.
16F#\	.	16d#/	.	.
16B\	.	16f#/	.	.
16F#\JJ	.	16d#/JJ	.	.
=32	=32	=32	=32	=32
16D#\LL	.	16B</LL	.	.
16F#\	.	16d#/	.	.
16B\	.	16f#/	.	.
16d#>\JJ	.	16b/JJ	1	.
16f#>\LL	.	16dd#/LL	2	.
16b>\	.	16ff#/	.	.
16f#>\	.	16dd#/	.	.
16d#>\JJ	.	16b/JJ	.	.
16f#>\LL	.	16dd#/LL	.	.
16b>\	.	16ff#/	.	.
16dd#>\	.	16bb/	1	.
16ff#>\JJ	.	16ddd#/JJ	.	.
16bb>\LL	.	16fff#/LL	.	.
*	*	*8va	*	*
16dd#>\	.	16bbb/	1	.
16ff#>\	.	16dddd#/	2	.
16bb>\JJ	.	16ffff#/JJ	3	.
=33	=33	=33	=33	=33
16ff#>\LL	.	16dddd#/LL	.	.
16dd#>\	.	16bbb/	1	.
*	*	*X8va	*	*
16bb>\	.	16fff#/	3	.
16ff#>\JJ	.	16ddd#/JJ	.	.
16dd#>\LL	.	16bb/LL	.	.
16b>\	.	16ff#/	.	.
16f#>\	.	16dd#/	.	.
16d#>\JJ	3	16b/JJ	.	.
16f#>\LL	2	16dd#/LL	.	.
16b>\JJ	1	16ff#/	.	.
16r>	.	16dd#/ 16bb	2 5	.
16b>\	1	16ff#/JJ	.	.
16f#>\LL	2	16dd#/LL	.	.
16d#>\	3	16b/	.	.
16B\	1	16f#/	.	.
16F#\JJ	.	16d#/JJ	.	.
!!LO:LB:g=original
=34	=34	=34	=34	=34
*^	*	*	*	*
4D#/	2ryy	.	4B</	.	.
!	!	!	!LO:TX:a:i:t=poco rit.-:dur=1w:ext=cd	!	!
(8qF#/	.	.	.	.	.
4F#\)	.	.	4dd#\ 4ddd#	.	.
*ped	*	*	*	*	*
4EE:/ 4Gn:	2BB:\ 2C#:	.	4gn\ 4a#X 4cc# 4ggn	.	sf
4An/	.	.	4an\ 4aan	.	.
*Xped	*	*	*	*	*
=35	=35	=35	=35	=35	=35
*ped	*	*	*	*	*
8BB/L 8D# 8F#	2ryy	.	4f#\ 4b 4dd# 4ff#	.	.
8BBB/J	.	.	.	.	.
4d#/	.	.	4dd#\ 4ddd#	.	.
*Xped	*	*	*	*	*
4EE/ 4Gn	2BB\ 2C#	.	4gn\ 4a#X 4cc# 4ggn	.	sf
4An/	.	.	4an\ 4aan	.	.
=36	=36	=36	=36	=36	=36
*ped	*	*	*	*	*
!LO:TUP:b	!	!	!LO:TUP:a	!	!
12BB^/L 12D# 12F#	1ryy	.	6f#^\ 6b 6dd# 6ff#	.	.
12BBB/J	.	.	.	.	.
6e^/	.	.	6ee^\ 6eee	.	.
*Xped	*	*	*	*	*
6d#^/	.	.	6dd#^\ 6ddd#	.	.
*ped	*	*	*	*	*
8EE^/ 8BB 8C# 8Gn	.	.	8gn^\ 8a#X 8cc# 8ggn	.	.
[4B^\	.	.	[4b^\ [4bb	.	sf
16B\LL]	.	.	16b\LL] 16bb]	.	.
16A#\JJ	.	.	16a#\JJ 16aa#	.	.
*Xped	*	*	*	*	*
*v	*v	*	*	*	*
=37	=37	=37	=37	=37
*ped	*	*	*	*
8BB/L 8D# 8F#	.	4f#\ 4b 4dd# 4ff#	.	.
8BBB/J	.	.	.	.
2f#\	.	2ff#^\ 2fff#	.	.
[4d#\ [4f#	.	[4ff#\ [4ddd# [4fff#	.	.
=38	=38	=38	=38	=38
4d#\] 4f#]	.	4ff#\] 4ddd#] 4fff#]	.	.
2B\ 2d# 2f#	.	2ff#\ 2ddd# 2fff#	.	.
*Xped	*	*	*	*
4F#\ 4B 4d# 4f#	.	4ff#\ 4ddd# 4fff#	.	.
!!LO:PB:g=original
=39||	=39||	=39||	=39||	=39||
*k[b-e-]	*	*	*	*
*ped	*	*	*	*
4DDD/ 4DD	.	4r	.	.
2F#X\ 2c 2e- 2f#X	.	2ff#X^\ 2eee 2fff#X	.	.
[4F#\ [4Bn [4d [4f#	.	[4ff#^\ [4ddd# [4fff#	.	.
=40	=40	=40	=40	=40
!	!	!LO:TX:a:i:t=rit.	!	!
4F#X\] 4Bn] 4d] 4f#X]	.	4ff#X\] 4ddd#] 4fff#X]	.	.
2F#^\ 2B-X 2c#X 2f#	.	2ff#^\ 2ccc#X 2fff#	.	.
*Xped	*	*	*	*
4F#^\ 4A 4cn 4f#	.	4ff#^\ 4cccn 4fff#	.	.
=41	=41	=41	=41	=41
!	!	!LO:TX:a:i:t=a tempo	!	!
*ped	*	*	*	*
16GG\LL 16D	2 5	16B</LL	2	.
16G\	1	16d#/	1	.
16B-\	4	16g#/	.	.
16d\JJ	.	16b/JJ	.	.
16g\LL	1	16dd#/LL	.	.
16d\	.	16b/	.	.
16B-\	4	16g#/	.	.
16G\JJ	1	16d#/JJ	1	.
*Xped	*	*	*	*
16C\LL	5	16B</LL	2	.
16E-\	.	16c#/	1	.
16G\	.	16e/	3	.
16B-\JJ	.	16b/JJ	5	.
16C\LL	.	16A#</LL	1	.
16G\J	.	16e/J	.	.
8A\J	.	8a#/J	.	.
=42	=42	=42	=42	=42
*^	*	*	*	*
16GG\LL 16D	4ryy	2 5	16B</LL	2	.
16G\J	.	1	16d#/	3	.
8B-\J	.	4	16g#/	1	.
.	.	.	16b/JJ	.	.
16fn\LL	4ryy	1	16gg#/LL	5	.
16d\J	.	.	16dd#/	.	.
8B-\J	.	4	16b/	.	.
.	.	.	16g#/JJ	1	.
*Xped	*	*	*	*	*
16C/LL	2C\	5	16a#/LL	1	.
16D/	.	.	16b/	.	.
16E-/	.	.	16ee/	.	.
16B-/JJ	.	.	16aa#/JJ	.	.
*	*	*above	*	*	*
8En/L	.	2	16g#/LL	.	.
.	.	.	16cc#/J	.	.
8B-/J	.	.	8gg#/J	.	.
*v	*v	*	*	*	*
!!LO:LB:g=original
=43	=43	=43	=43	=43
*ped	*	*	*	*
16FF\LL	.	16A#</LL	2	.
16C\J	.	16c#/	3	.
8F\J	.	16g#/	1	.
.	.	16a#/JJ	.	.
12g>\L	.	16gg#^>/LL	5	.
.	.	16cc#/	.	.
12c\	.	.	.	.
.	.	16a#/	.	.
12A\J	.	.	.	.
.	.	16g#/JJ	.	.
12g-X>\L	.	16gg-X^>/LL	5	.
.	.	16cc#/	.	.
12c\	.	.	.	.
.	.	16a#/	.	.
*Xped	*	*	*	*
12A\J	.	.	.	.
.	.	16g-X/JJ	.	.
16BB-\LL	.	16f#/LL	1	.
16A-X\J	.	16cc-X/J	.	.
8d>\J	.	8ff#/J	.	.
=44	=44	=44	=44	=44
*ped	*	*	*	*
16EE-X\LL	.	16Gn</LL	2	.
16BB-\J	.	16B</	3	.
8G\J	.	16f#/	1	.
.	.	16g#/JJ	.	.
12f>\L	.	16ff#^>/LL	5	.
.	.	16b/	.	.
12B-\	.	.	.	.
.	.	16g#/	.	.
12G\J	.	.	.	.
.	.	16f#/JJ	.	.
12f-X>\L	.	16ff-X^>/LL	.	.
.	.	16b/	.	.
12B-\	.	.	.	.
.	.	16g#/	.	.
*Xped	*below	*	*	*
12G\J	.	.	.	.
.	.	16f#/JJ	.	.
16AA-X\LL	.	16e/LL	1	.
16G-X\J	.	16b--/J	.	.
8c\J	.	8ee/J	.	.
!!LO:LB:g=original
=45	=45	=45	=45	=45
*ped	*	*	*	*
16DD-X\LL	.	16Fn</LL	2	.
16AA-X\J	.	16A-X</	3	.
8F\J	.	16e/	1	.
.	.	16f#/JJ	.	.
12e->\L	.	16ee^/LL	5	.
.	.	16a-X/	.	.
12A\	.	.	.	.
.	.	16f#/	.	.
12F\J	.	.	.	.
.	.	16e/JJ	.	.
12e-->\L	.	16ee--^/LL	.	.
.	.	16a-/	.	.
12A\	.	.	.	.
.	.	16f#/	.	.
*Xped	*	*	*	*
12F\J	.	.	.	.
.	.	16e/JJ	.	.
16GGn\LL	.	16d-X/LL	1	.
16F\J	.	16a-/J	.	.
8Bn\J	.	8dd-X/J	.	.
=46	=46	=46	=46	=46
*^	*	*	*	*
*ped	*	*	*	*	*
16CC\LL	4ryy	.	16En</LL	2	.
16BB-X\J	.	.	16G#/	3	.
8E-\J	.	1	16d-<X/	1	.
.	.	.	16en/JJ	.	.
(<8B-^\L	4B-X/	1	16dd-X/LL	.	.
.	.	.	16g#/J	.	.
8E-\J)	.	.	8d-/J	.	.
16FFF\LL	4ryy	.	16E-X</LL	2	.
*Xped	*	*	*	*	*
16EE-X\J	.	1	16G-X</	3	.
8AAn\J	.	.	16d-/	1	.
.	.	.	16e-X/JJ	.	.
(8A^>\L	4An/	1	16dd-/LL	.	.
.	.	.	16g-X/J	.	.
8E-\J)	.	.	8d-/J	.	.
!!LO:LB:g=original
=47	=47	=47	=47	=47	=47
*ped	*	*	*	*	*
16BBB-\LL	4ryy	.	16D-X</LL	2	.
16FF\J	.	.	16F#</	3	.
8C\J	.	.	16d-X/	1	.
.	.	.	16f#/JJ	.	.
(<8c^\L	4c/	.	16dd-X/LL	.	.
.	.	.	16f#/J	.	.
8F\J)	.	.	8d-/J	.	.
16DD-X\LL	4ryy	.	16D-</LL	2	.
16FF-X\J	.	.	16F-X</	3	.
*Xped	*	*	*	*	*
8BB-\J	.	.	16d-/	1	.
.	.	.	16f-X/JJ	.	.
(<8B-^\L	4B-/	.	16dd-/LL	.	.
.	.	.	16f-/J	.	.
8F\J)	.	.	8d-/J	.	.
*v	*v	*	*	*	*
=48||	=48||	=48||	=48||	=48||
*k[f#c#g#]	*	*k[f#c#g#]	*	*
*ped	*	*	*	*
16AAA\LL	.	16C#</LL	2	.
16EE\	.	16E</	3	.
16AA\	1	16c#/	1	.
16C#\JJ	.	16e/JJ	.	.
4A^\	.	4cc#\	.	.
8CC#\L	3	16r	.	.
.	.	16AA</LL	1	.
16EE\L	.	16C#</	2	.
16AA\JJ	1	16E</JJ	3	.
16EE\LL	.	16C#</LL	.	.
16CC#\	.	16AA</	.	.
16EE\	.	16C#</	.	.
16AA\JJ	1	16E</JJ	.	.
!!LO:LB:g=original
=49	=49	=49	=49	=49
16C#\LL	3	16A</LL	1	.
16E\	.	16c#/	.	.
16A\	.	16e/	.	.
16E\JJ	.	16c#/JJ	.	.
16C#\LL	.	16A</LL	.	.
16E\	.	16c#/	.	.
16A\	.	16e/	.	.
16c#\JJ	.	16a/JJ	1	.
16e>\LL	.	16cc#/LL	.	.
16a>\	.	16ee/	.	.
16e>\	.	16cc#/	.	.
16c#\JJ	.	16a/JJ	.	.
16e>\LL	.	16cc#/LL	.	.
16a>\	.	16ee/	.	.
16cc#>\	.	16aa/	1	.
16ee>\JJ	.	16ccc#/JJ	.	.
=50	=50	=50	=50	=50
16aa>\LL	1	16eee/LL	3	.
16ccc#>\	2	16aaa/	5	.
16aa>\	1	16eee/	3	.
16ee>\JJ	.	16ccc#/JJ	.	.
16cc#>\LL	.	16aa/LL	1	.
16a>\	.	16ee/	.	.
16e>\	.	16cc#/	.	.
16c#\JJ	.	16a/JJ	.	.
16e>\LL	2	16cc#/LL	.	.
16a>\JJ	1	16ee/	.	.
16r>	.	16cc#/ 16aa	2 5	.
16a>\	1	16ee/JJ	.	.
16e>\LL	2	16cc#/LL	.	.
16c#\	.	16a/	1	.
16A\	1	16e/	3	.
16E\JJ	2	16c#/JJ	2	.
=51	=51	=51	=51	=51
*Xped	*	*	*	*
4A\	1	4r	.	.
!	!	!LO:TX:a:i:t=poco rit.-:dur=3q:ext=cd	!	!
(8qE/	.	.	.	.
4E\)	.	4e/ 4ee	.	.
*ped	*above	*	*	*
8AA\L 8BB 8D 8G#	.	4fn\ 4g# 4b 4ffn	.	sf
8DD\J	.	.	.	.
4Gn\	1	4gn\ 4ggn	.	.
*Xped	*	*	*	*
!!LO:PB:g=original
=52	=52	=52	=52	=52
*ped	*below	*	*	*
4CCC#/ 4GGG# 4CC#	.	4e/ 4a 4cc# 4ee	.	sf
8CC#\L	3	16r	.	.
.	.	16AA</LL	2	.
16EE\L	.	16C#</	4	.
16AA\JJ	.	16E</JJ	5	.
16EE\LL	.	16C#</LL	4	.
16CC#\	.	16AA</	2	.
16EE\	.	16C#</	4	.
16AA\JJ	1	16E</JJ	1	.
16C#\LL	3	16A</LL	.	.
16E\	.	16c#/	.	.
16A\	.	16e/	5	.
16E\JJ	.	16c#/JJ	.	.
=53	=53	=53	=53	=53
16C#\LL	.	16A</LL	2	.
16E\	.	16c#/	4	.
16A\	1	16e/	1	.
16c#\JJ	3	16a/JJ	.	.
16e>\LL	.	16cc#/LL	.	.
16a>\	.	16ee/	.	.
16e>\	.	16cc#/	.	.
16c#>\JJ	.	16a/JJ	.	.
16e>\LL	.	16cc#/LL	.	.
16a>\	.	16ee/	1	.
16cc#>\	.	16aa/	.	.
16ee>\JJ	.	16ccc#/JJ	4	.
16aa>\LL	1	16eee/LL	1	.
16ccc#>\	3	16aaa/	2	.
*	*	*8va	*	*
16ee>\	2	16cccc#/	4	.
16aa>\JJ	1	16eeee/JJ	5	.
=54	=54	=54	=54	=54
16ee>\LL	.	16cccc#/LL	.	.
*	*	*X8va	*	*
16ccc#>\	.	16aaa/	.	.
16aa>\	.	16eee/	.	.
16ee>\JJ	.	16ccc#/JJ	.	.
16cc#>\LL	.	16aa/LL	.	.
16a>\	.	16ee/	.	.
16cc#>\	.	16aa/	.	.
16ee>\JJ	.	16ccc#/JJ	.	.
16aa>\LL	.	16eee/LL	.	.
16ee>\	.	16ccc#/	.	.
16cc#>\	.	16aa/	.	.
16a>\JJ	.	16ee/JJ	.	.
16e>\LL	.	16cc#/LL	.	.
16c#\	.	16a/	.	.
16A\	.	16f#/	.	.
16E\JJ	.	16c#/JJ	.	.
!!LO:LB:g=original
=55	=55	=55	=55	=55
*	*^	*	*	*
4C#\	.	.	4A/	.	.
!	!	!	!LO:TX:a:i:t=poco rit.-:dur=3q:ext=cd	!	!
(8qc#/	.	.	.	.	.
*Xped	*	*	*	*	*
4c#\)	.	.	4cc#\ 4ccc#	.	.
*ped	*	*	*	*	*
8AA\L 8BB 8D 8G#X	1	5	4fn\ 4g#X 4b 4ffn	.	sf
8DD\J	.	5	.	.	.
4Gn\	1	.	4gn\ 4ggn	.	.
*Xped	*	*	*	*	*
=56	=56	=56	=56	=56	=56
*ped	*	*	*	*	*
8AA/L 8C# 8E	2	3 5	4e/ 4a 4cc# 4ee	.	.
8AAA/J	.	5	.	.	.
*Xped	*	*	*	*	*
4c#\	.	.	4cc#\ 4ccc#	.	.
*ped	*	*	*	*	*
8AA\L 8BB 8D 8G#X	1	5	4fn\ 4g#X 4b 4ffn	.	sf
8DD\J	.	5	.	.	.
4Gn\	1	.	4gn\ 4ggn	.	.
*Xped	*	*	*	*	*
=57	=57	=57	=57	=57	=57
*ped	*	*	*	*	*
!	!	!	!LO:TUP:a	!	!
12AA^>L 12C# 12E	2	5	6e^>/ 6a 6cc# 6ee	.	.
12AAA/J	.	5	.	.	.
6d^\	.	.	6dd^\ 6ddd	.	.
*Xped	*	*	*	*	*
6c#^\	.	.	6cc#^\ 6ccc#	.	.
*ped	*	*	*	*	*
16AA^\LL 16BB 16D 16G#X	1	5	8fn^\ 8g#X 8b 8ffn	.	.
16DD\JJ	.	5	.	.	.
[4A^\	1	.	[4a\ [4aa	.	sf
16A\LL]	.	.	16a\LL] 16aa]	.	.
16G#\JJ	1	.	16g#\JJ 16gg#	.	.
*Xped	*	*	*	*	*
=58	=58	=58	=58	=58	=58
*ped	*	*	*	*	*
8AA/L 8C# 8E	2	5	4e/ 4a 4cc# 4ee	.	.
8AAA/J	.	5	.	.	.
2e\	.	.	2ee^\ 2eee	.	.
[4c#\ [4e	.	.	[4ee^\ [4ccc# [4eee	.	.
*	*v	*v	*	*	*
=59	=59	=59	=59	=59
4c#\] 4e]	.	4ee\] 4ccc#] 4eee]	.	.
*Xped	*	*	*	*
2A\ 2c# 2e	.	2ee^\ 2ccc# 2eee	.	.
4E\ 4A 4c# 4e	.	4ee^\ 4ccc# 4eee	.	.
!!LO:LB:g=original
=60||	=60||	=60||	=60||	=60||
*k[b-e-]	*	*k[b-e-]	*	*
*ped	*	*	*	*
!	!	!LO:TX:a:i:t=rit.-:dur=2w:ext=cd	!	!
4DDD/ 4DD	.	4r	.	.
2F#X\ 2c 2e- 2f#X	.	2ff#X\ 2eee- 2fff#X	.	<
[4F#\ [4Bn [4d [4f#	.	[4ff#\ [4ddd#X [4fff#	.	.
=61	=61	=61	=61	=61
4F#X\] 4Bn] 4d] 4f#X]	.	4ff#X\] 4ddd#] 4fff#X]	.	.
2F#\ 2B-X 2c#X 2f#	.	2ff#\ 2ccc#X 2fff#	.	.
[8qF#/ [8qA [8qcn [8qf#	.	.	.	.
*Xped	*	*	*	*
4F#\] 4A] 4c] 4f#]	.	4ff#\ 4cccn 4fff#	.	[
=62	=62	=62	=62	=62
*ped	*	*	*	*
!	!	!LO:TX:a:i:t=a tempo \nimpetuoso	!	!
16GGG\LL	5	16BB-</LL	2	.
16EE-\	2	16E-</	4	.
16GG\	1	16G</	1	.
16BB-\JJ	4	16B-</JJ	.	.
4E-^\	2	16e-/LL	4	.
.	.	16B-</	.	.
.	.	16G</	1	.
.	.	16E-</JJ	4	.
16CC\LL	.	16BB-</LL	1	.
16EE-\J	.	16C</	.	.
*Xped	*	*	*	*
8GG\J	.	16E-</	3	.
.	.	16B-</JJ	5	.
16CC\LL	.	16AA</LL	1	.
16EE-\J	.	16E-</J	3	.
8FF#X\J	.	8A</J	5	.
=63	=63	=63	=63	=63
*ped	*	*	*	*
16GGG\LL	5	16BB-</LL	2	.
16EE-\	.	16E-</	4	.
16GG\	1	16G</	1	.
16BB-\JJ	4	16B-</JJ	.	.
4E-^\	2	16g/LL	5	.
.	.	16e-/	.	.
.	.	16B-</	.	.
.	.	16G</JJ	1	.
16CC\LL	.	16A-X/LL	1	.
16EE-\J	.	16c/	.	.
*Xped	*	*	*	*
8GG\J	.	16e-/	.	.
.	.	16a-X/JJ	.	.
16CC\LL	.	16An</LL	1	.
16EE-\J	.	16e-/J	.	.
8FF#X\J	.	8an/J	.	.
!!LO:LB:g=original
=64	=64	=64	=64	=64
*ped	*	*	*	*
16GGG\LL	5	16B-</LL	2	.
16EE-\	.	16e-/	4	.
16GG\	.	16g/	1	.
16BB-\JJ	.	16b-/JJ	.	.
4E-^\	2	16ee-/LL	4	.
.	.	16b-/	.	.
.	.	16g/	1	.
.	.	16e-/JJ	4	.
16CC\LL	.	16B-</LL	1	.
16EE-\J	.	16c/	.	.
*Xped	*	*	*	*
8GG\J	.	16e-/	.	.
.	.	16b-/JJ	.	.
16CC\LL	.	16A</LL	1	.
16EE-\J	.	16e-/J	.	.
8FF#X\J	.	8a/J	.	.
!!LO:LB:g=original
=65	=65	=65	=65	=65
*ped	*	*	*	*
16GGG\LL	.	16B-</LL	2	.
16EE-\	.	16e-/	4	.
16GG\	.	16g/	1	.
16BB-\JJ	.	16b-/JJ	.	.
4E-^\	.	16gg\LL	5	.
.	.	16ee-\	.	.
.	.	16b-\	.	.
.	.	16g\JJ	1	.
16CC/LL	.	16a-X\LL	1	.
*Xped	*	*	*	*
16EE-/J	.	16cc\	.	.
8GG/J	.	16ee-\	.	.
.	.	16aa-X\JJ	.	.
16CC/LL	.	16an\LL	1	.
16EE-/J	.	16ee-\J	.	.
8FF#X/J	.	8aan\J	.	.
=66	=66	=66	=66	=66
*^	*	*	*	*
*ped	*	*	*	*	*
8GGG/L	2GGG\	.	16bn\LL	2	<
.	.	.	16dd\	3	.
[8DD/J	.	.	16aa-X\	1	.
.	.	.	16bbn\JJ	2	.
4DD^/] 4FFn	.	.	16aaa-X\LL	5	.
.	.	.	16bb\	2	.
.	.	.	16aa-\	1	.
.	.	.	16dd\JJ	3	.
8BBBn/L	2ryy	.	16b\LL	2	.
.	.	.	16dd\	.	.
8AA-X/J	.	.	16aa-\	1	.
.	.	.	16bb\JJ	.	.
4D^>/	.	.	16aaa-\LL	5	.
.	.	.	16bb\	.	.
.	.	.	16aa-\	1	.
.	.	.	16dd\JJ	3	.
*v	*v	*	*	*	*
!!LO:LB:g=original
=67	=67	=67	=67	=67
8DD/L	.	16bn\LL	2	.
.	.	16dd\	.	.
8BBn/J	.	16aa-X\	1	.
.	.	16bbn\JJ	.	.
4F^\	.	16aaa-X\LL	.	.
.	.	16bb\	.	.
.	.	16aa-\	.	.
.	.	16dd\JJ	.	.
8FF/L	.	16b\LL	.	.
.	.	16dd\	.	.
8D/J	.	16aa-\	.	.
.	.	16bb\JJ	.	.
*Xped	*	*	*	*
4A-X^>\	.	16aaa-\LL	.	.
.	.	16bb\	.	.
.	.	16aa-\	1	.
.	.	16dd\JJ	3	.
=68	=68	=68	=68	=68
*^	*	*	*	*
*ped	*	*	*	*	*
8GGG/L	2GGG\	.	16cc#X\LL	2	.
.	.	.	16een\	3	.
8EEn/J	.	.	16bb-X\	1	.
.	.	.	16ccc#X\JJ	2	.
*	*	*	*8va	*	*
4GG^/	.	.	16bbb-\LL	5	.
*	*	*	*X8va	*	*
.	.	.	16ccc#\	2	.
.	.	.	16bb-\	1	.
.	.	.	16ee\JJ	3	.
8CC#X/L	2ryy	.	16cc#\LL	2	.
.	.	.	16ee\	.	.
8BB-X/J	.	.	16bb-\	1	.
.	.	.	16ccc#\JJ	2	.
*	*	*	*8va	*	*
4En^>/	.	.	16bbb-\LL	5	.
*	*	*	*X8va	*	*
.	.	.	16ccc#\	2	.
.	.	.	16bb-\	1	.
.	.	.	16ee\JJ	3	.
*v	*v	*	*	*	*
!!LO:LB:g=original
=69	=69	=69	=69	=69
8EEn/L	.	16cc#X\LL	2	.
.	.	16een\	.	.
8C#X/J	.	16bb-X\	1	.
.	.	16ccc#X\JJ	.	.
*Xped	*	*8va	*	*
4G^\	.	16bbb-\LL	5	.
*	*	*X8va	*	*
.	.	16ccc#\	.	.
.	.	16bb-\	1	.
.	.	16ee\JJ	3	.
8GG/L	.	16cc#\LL	2	.
.	.	16ee\	.	.
8En/J	.	16bb-\	1	.
.	.	16ccc#\JJ	.	.
*	*	*8va	*	*
4B-^\	.	16bbb-\LL	5	.
*	*	*X8va	*	*
.	.	16ccc#\	.	.
.	.	16bb-\	1	.
.	.	16ee\JJ	3	.
!!LO:PB:g=original
=70	=70	=70	=70	=70
*ped	*	*	*	*
8GGG/L	.	16ee-\LL	2	.
.	.	16ff#X\	3	.
8FF#X/J	.	16ccc\	1	.
.	.	16eee-\JJ	2	.
*	*	*8va	*	*
4AAn^>/	.	16cccc\LL	5	.
*	*	*X8va	*	*
.	.	16eee-\	.	.
.	.	16ccc\	1	.
.	.	16ff#\JJ	3	.
8EE-X/L	.	16ee-\LL	.	.
.	.	16ff#\	.	.
8C/J	.	16ccc\	1	.
.	.	16eee-\JJ	.	.
*	*	*8va	*	*
4F#X^\	.	16cccc\LL	5	.
*	*	*X8va	*	*
.	.	16eee-\J	.	.
.	.	8ccc\J	1	.
!!LO:LB:g=original
=71	=71	=71	=71	=71
8FF#X/L	.	16ff#X\LL	2	.
.	.	16aa\	3	.
8E-/J	.	16eee-\	1	.
.	.	16fff#X\JJ	2	.
*	*	*8va	*	*
4A^\	.	16eeee-\LL	5	.
*	*	*X8va	*	*
.	.	16fff#\	2	.
.	.	16eee-\	1	.
.	.	16aa\JJ	3	.
8AA/L	.	16ff#\LL	.	.
.	.	16aa\	.	.
8F#X/J	.	16eee-\	.	.
.	.	16fff#\JJ	.	.
*	*	*8va	*	*
4c^\	.	16eeee-\LL	5	.
*	*	*X8va	*	*
.	.	16fff#\J	.	.
.	.	8eee-\J	1	.
=72	=72	=72	=72	=72
8C\L	.	16aa\LL	2	.
.	.	16ccc\	3	.
8A\J	.	16fff#X\	1	.
.	.	16aaa\JJ	2	.
*	*	*8va	*	*
4e-^\	.	16ffff#\LL	5	.
*	*	*X8va	*	*
.	.	16aaa\	2	.
.	.	16fff#\	1	.
.	.	16ccc\JJ	3	.
8E-\L	.	16aa\LL	2	.
.	.	16ccc\	.	.
8c\J	.	16fff#\	1	.
.	.	16aaa\JJ	.	.
*	*	*8va	*	*
4f#X^\	.	16ffff#\LL	5	.
*	*	*X8va	*	*
.	.	16aaa\	.	.
.	.	16fff#\	1	.
.	.	16ccc\JJ	3	.
!!LO:LB:g=original
=73	=73	=73	=73	=73
8F#X\L	.	16aa\LL	.	.
.	.	16ccc\	.	.
8e-\J	.	16fff#X\	1	.
.	.	16aaa\JJ	.	.
*	*	*8va	*	*
4a^\	.	16ffff#\LL	5	.
*	*	*X8va	*	*
.	.	16aaa\	.	.
.	.	16fff#\	1	.
.	.	16ccc\JJ	3	.
*clefG2	*	*	*	*
8A/L	.	16aa\LL	.	.
.	.	16ccc\	.	.
8f#X/J	.	16fff#\	1	.
.	.	16aaa\JJ	.	.
*Xped	*	*8va	*	*
4cc^\	.	16ffff#\LL	5	.
*	*	*X8va	*	*
.	.	16aaa\	.	.
.	.	16fff#\	1	.
.	.	16ccc\JJ	.	.
*clefF4	*	*	*	*
=74	=74	=74	=74	=74
*ped	*	*	*	*
4GGG/ 4GG	.	16bbn\LL	2	ff
.	.	16ddd\	3	.
.	.	16aaa-X\	1	.
*	*	*8va	*	*
.	.	16bbb\JJ	2	.
*clefG2	*above	*	*	*
16fffn\LL	1	16aaaa-^\LL	5	.
16ddd\	.	16bbb\	2	.
16bbn\	.	16aaa-X\	1	.
16ffn\JJ	5	16bbb\JJ	3	.
16ddd\LL	1	16ffffn\LL	5	.
16bb\	.	16aaa-\	2	.
16aa-X\	.	16fff\	1	.
16dd\JJ	.	16aaa-\JJ	3	.
16bb\LL	.	16dddd\LL	5	.
16aa-\	.	16fff\	2	.
16ff\	.	16ddd\	1	.
16bn\JJ	.	16fff\JJ	3	.
!!LO:LB:g=original
=75	=75	=75	=75	=75
16aa-X\LL	.	16bbbn\LL	5	.
16ff\	.	16ddd\	2	.
16dd\	.	16bbn\	1	.
16a-X\JJ	.	16ddd\JJ	3	.
*	*	*X8va	*	*
16ff\LL	.	16aaa-X\LL	5	.
16dd\	.	16bb\	2	.
16bn\	.	16aa-X\	.	.
16f\JJ	.	16bb\JJ	3	.
16dd/LL	.	16fff\LL	.	.
16b/	.	16aa-\	2	.
16a-X/	.	16ff\	.	.
16d/JJ	.	16aa-\JJ	3	.
16b/LL	.	16ddd\LL	.	.
16a-/	.	16ff\	2	.
16f/	.	16dd\	.	.
16Bn/JJ	.	16ff\JJ	3	.
=76	=76	=76	=76	=76
16a-X/LL	.	16bbn\LL	.	.
16f/	.	16dd\	.	.
16d/	.	16bn\	.	.
16A-X/JJ	.	16dd\JJ	.	.
*clefF4	*	*	*	*
16f\LL	.	16aa-X\LL	.	.
16d\	.	16b\	.	.
16Bn\	.	16a-X\	.	.
16F\JJ	.	16b\JJ	.	.
16d\LL	.	16ff\LL	.	.
16B\	.	16a-\	.	.
16A-X\	.	16f\	.	.
16D\JJ	.	16a-\JJ	.	.
16B\LL	.	16dd/LL	.	.
16A-\	.	16f/	.	.
16F\	.	16d/	.	.
16BBn\JJ	.	16f/JJ	.	.
=77	=77	=77	=77	=77
16A-X\LL	.	16bn/LL	.	.
16F\	.	16d/	.	.
16D\	.	16Bn</	.	.
16AA-X\JJ	.	16d/JJ	.	.
16F\LL	.	16a-X/LL	.	.
16D\	.	16B</	.	.
16BBn\	.	16A</	.	.
16FF\JJ	.	16B</JJ	.	.
16D\LL	.	16f/LL	.	.
16BB\	.	16A</	.	.
16AA-\	.	16F</	.	.
16DD\JJ	.	16A</JJ	.	.
16BB\LL	.	16d/LL	.	.
16AA-\	.	16F</	.	.
16FF\	.	16D</	.	.
16BBBn\JJ	.	16F</JJ	.	.
!!LO:LB:g=original
=78	=78	=78	=78	=78
16AA-X\LL	.	16Bn</LL	5	.
16FF\	.	16D</	2	.
16DD\	.	16BBn</	1	.
16AAA-X\JJ	.	16F</JJ	3	.
16AA-\LL	.	16A-X</LL	4	.
16FF\	.	16D</	2	.
16DD\	.	16BB</	1	.
16AAA-\JJ	.	16F</JJ	3	.
16AA-\LL	.	16B</LL	5	.
16FF\	.	16D</	.	.
16DD\	.	16BB</	.	.
16AAA-\JJ	.	16F</JJ	.	.
16AA-\LL	.	16A-</LL	4	.
16FF\	.	16D</	.	.
16DD\	.	16BB</	.	.
16AAA-\JJ	.	16F</JJ	.	.
=79	=79	=79	=79	=79
16AA-X\LL	.	16Bn</LL	.	.
16FF\	.	16D</	.	.
16DD\	.	16BBn</	.	.
16AAA-X\JJ	.	16F</JJ	.	.
16AA-\LL	.	16A-X</LL	.	.
16FF\	.	16D</	.	.
16DD\	.	16BB</	.	.
16AAA-\JJ	.	16F</JJ	.	.
16AA-\LL	.	16B</LL	.	.
16FF\	.	16D</	.	.
16DD\	.	16BB</	.	.
16AAA-\JJ	.	16F</JJ	.	.
16AA-\LL	.	16A-</LL	.	.
16FF\	.	16D</	.	.
16DD\	.	16BB</	.	.
16AAA-\JJ	.	16F</JJ	.	.
*Xped	*	*	*	*
=80	=80	=80	=80	=80
16AA-X\LL	.	16Bn</LL	.	.
16FF\	.	16F</	.	.
16DD\	.	16D</	.	.
16AAA-X\JJ	.	16BBn</JJ	.	.
*ped	*	*	*	*
4EE-\ 4AA-	.	4C<^>/ 4E-< 4A-X< 4c	.	.
16AA-\LL	.	16B</LL	.	.
16FF\	.	16F</	.	.
16DD\	.	16D</	.	.
16AAA-\JJ	.	16BB</JJ	.	.
4EE-\ 4AA-	.	4C<^>/ 4E-< 4A-< 4c	.	.
!!LO:LB:g=original
=81	=81	=81	=81	=81
*Xped	*	*	*	*
16AA-X\LL	.	16Bn</LL	.	.
16FF\	.	16F</	.	.
16DD\	.	16D</	.	.
[16AAA-X\JJ	.	16BBn</JJ	.	.
*ped	*	*	*	*
!	!	!LO:TX:a:i:t=rit.	!	!
4AAA-\] 4EE- 4AA-	.	4C<^>/ 4E-< 4A-X< 4c	.	.
4CCC\ 4EE-	.	4C<^>/ 4E-< 4A-< 4c	.	.
*Xped	*	*	*	*
4AAA-\ 4EE- 4AA-	.	4C<^>/ 4E-< 4A-< 4c	.	.
=82	=82	=82	=82	=82
*ped	*	*	*	*
!	!	!LO:TX:a:i:t=Pesante	!	!
2DDD-X\ 2DD-X	.	2D-X<^>/ 2F</ 2A-X</ 2d-X	.	.
2GGG-X\ 2GG-X	.	2D-<^>/ 2G-X</ 2B-</	.	.
=83	=83	=83	=83	=83
*	*	*	*^	*
*Xped	*	*	*below	*	*
2CCC-X\ 2CC-X	.	2E-<^>/ 2G-X</ 2c-X/	.	.	.
!	!	!LO:TX:a:i:t=Risoluto	!	!	!
2DDn/ 2FF#X 2AAn 2Dn	.	2cn'/ 2dn 2f#X 2an 2dd	1	1	fff
*	*	*	*v	*v	*
=84	=84	=84	=84	=84
*ped	*	*	*	*
2GGGn/ 2DD 2GGn	.	2ggn'\ 2bb- 2gggn	.	.
*Xped	*	*	*	*
2C\ 2G 2B- 2c	.	2e-'>/ 2g 2b- 2ee-	.	.
=85	=85	=85	=85	=85
*ped	*	*8va	*	*
2GGG/ 2DD 2GG	.	2bb-'\ 2ddd 2bbb-	.	.
*Xped	*	*X8va	*	*
2C\ 2G 2B- 2c	.	2e-'>/ 2g 2b- 2ee-	.	.
=86	=86	=86	=86	=86
*ped	*	*8va	*	*
1GGG 1DD 1GG	.	1ggg 1bbb- 1gggg^	.	.
*	*	*X8va	*	*
=87	=87	=87	=87	=87
1d> 1g> 1b-> 1dd>	.	1gg 1bb- 1ggg	.	.
=88	=88	=88	=88	=88
!	!	!LO:TX:a:i:t=m.d.	!	!
8qG/ 8qB- 8qg>	.	.	.	.
!LO:TX:b:i:t=m.g.	!	!	!	!
1GGG^;< 1DD 1GG	.	1r;	.	.
*Xped	*	*	*	*
==	==	==	==	==
*-	*-	*-	*-	*-
!!!RDF**kern: > = above
!!!RDF**kern: < = below
!!!system-decoration: [(s1,s2)]
!!!ENC: Berenika Jozajtis
!!!END: 2022-07-20
!!!ENC: Urszula Świątek
!!!END: 2022-08-20
!!!YEC: Copyright 2022 Narodowy Instytut Fryderyka Chopina (https://polishscores.org)
!!!YEM: License CC-BY-4.0 (https://creativecommons.org/licenses/by/4.0)
